svg/folder_question_outline.svg

<svg xmlns="http://www.w3.org/2000/svg" viewBox="0 0 24 24"><path d="M20 18H4V8h16m0-2h-8l-2-2H4c-1.1 0-2 .9-2 2v12c0 1.1.9 2 2 2h16c1.1 0 2-.9 2-2V8c0-1.1-.9-2-2-2m-1 5.7c0 1.7-2 1.8-2 3.3h-1.3c0-2.2 2-2 2-3.3 0-.7-.6-1.3-1.3-1.3s-1.3.6-1.3 1.3h-1.3c0-1.5 1.2-2.7 2.7-2.7s2.5 1.2 2.5 2.7m-2 4V17h-1.3v-1.3z"/></svg>

<svg xmlns="http://www.w3.org/2000/svg" id="mdi-folder-question-outline" viewBox="0 0 24 24"><path d="M20 18H4V8H20M20 6H12L10 4H4C2.9 4 2 4.9 2 6V18C2 19.1 2.9 20 4 20H20C21.1 20 22 19.1 22 18V8C22 6.9 21.1 6 20 6M19 11.7C19 13.4 17 13.5 17 15H15.7C15.7 12.8 17.7 13 17.7 11.7C17.7 11 17.1 10.4 16.4 10.4C15.7 10.4 15.1 11 15.1 11.7H13.8C13.8 10.2 15 9 16.5 9S19 10.2 19 11.7M17 15.7V17H15.7V15.7H17Z" /></svg>
